icon/cg/anchor.svg

<svg viewBox="0 0 24 24" fill="none" xmlns="http://www.w3.org/2000/svg" height="1em" width="1em">
  <path fill-rule="evenodd" clip-rule="evenodd" d="M15 6C15 7.30622 14.1652 8.41746 13 8.82929V16.874C14.7252 16.4299 16 14.8638 16 13H18C18 15.973 15.8377 18.441 13 18.917V20C13 20.5523 12.5523 21 12 21C11.4477 21 11 20.5523 11 20V18.917C8.16229 18.441 6 15.973 6 13H8C8 14.8638 9.27477 16.4299 11 16.874V8.82929C9.83481 8.41746 9 7.30622 9 6C9 4.34315 10.3431 3 12 3C13.6569 3 15 4.34315 15 6ZM12 7C12.5523 7 13 6.55228 13 6C13 5.44772 12.5523 5 12 5C11.4477 5 11 5.44772 11 6C11 6.55228 11.4477 7 12 7Z" fill="currentColor"/>
</svg>

<svg width="24" height="24" fill="none" xmlns="http://www.w3.org/2000/svg"><path fill-rule="evenodd" clip-rule="evenodd" d="M15 6a3.001 3.001 0 0 1-2 2.83v8.044c1.725-.444 3-2.01 3-3.874h2a6.002 6.002 0 0 1-5 5.917V20a1 1 0 1 1-2 0v-1.083A6.002 6.002 0 0 1 6 13h2a4.002 4.002 0 0 0 3 3.874V8.829A3.001 3.001 0 1 1 15 6Zm-3 1a1 1 0 1 0 0-2 1 1 0 0 0 0 2Z" fill="currentColor"/></svg>
